svg/file-icons/Assembly-Zilog.svg

<svg version="1.1" xmlns="http://www.w3.org/2000/svg" width="512px" height="512px"><path d="M0,290.5231934l72.8811035-3.9035645v34.1003418L0,316.1477051V290.5231934z M330.9854126,340.7501831v-16.3765869c-19.5064697,26.1600952-65.0695801,13.6505127-60.8950195-20.3965454l12.7479858-45.3939819c5.4008789-21.1344604,14.1450195-22.1130981,46.3852539-22.1130981h1.7618408l0.000061-173.5548706c0-10.8082275-8.7617798-19.5700073-19.5699463-19.5700073l-158.8244019-0.0001221c-10.8082275,0-19.5700073,8.7617798-19.5700073,19.5700073l-0.0001831,386.1699219c0,10.8081665,8.7617798,19.5699463,19.5699463,19.5700073h78.0272827L330.9854126,340.7501831z M379.1154175,76.3370972h-39.3922729l-0.0001221,61.9559326h39.3922729L379.1154175,76.3370972z M379.1151733,236.4699707l0.000061-61.9554443l-39.3922729-0.000061l-0.0001221,61.9555054H379.1151733z M460.0201416,94.1687622l-72.8810425-3.9036255l-0.000061,34.1002808l72.8810425-4.5721436L460.0201416,94.1687622z M460.0200806,192.3461304l-72.8810425-3.9036255l-0.000061,34.1003418l72.8810425-4.5722046L460.0200806,192.3461304z M0,414.3250732l72.8810425,4.5722656l0.000061-34.1003418L0,388.7005615V414.3250732z M81.5734253,236.4703979h43.9456177l0.000061-61.9558716l-43.9456177-0.000061L81.5734253,236.4703979z M81.5733032,334.6477661h43.9456177l0.000061-61.9558716l-43.9456177-0.000061L81.5733032,334.6477661z M81.5735474,138.2930298h43.9456177l0.000061-61.9558716l-43.9456177-0.000061L81.5735474,138.2930298z M81.5733032,432.8251343l43.9456177,0.000061l0.000061-61.9559326l-43.9456177-0.000061L81.5733032,432.8251343z M0.000061,217.9703369l72.8811035,4.5722656v-34.1003418L0.000061,192.3458252V217.9703369z M0.0001221,119.7929688l72.8811035,4.5722656V90.2648926L0.0001831,94.168457L0.0001221,119.7929688z M308.9346924,251.9280853c-4.2295837,0.813385-4.3564758,6.5563202-5.8274536,12.1536102l-12.2628784,43.2060547c-0.7524109,6.3119812,6.2290344,12.7309875,18.0152588,9.0076294c8.5973511-2.7159729,8.1168823-20.771637,28.2471313-32.0209045c9.164856-5.121521,41.2306824-4.7171936,68.5905151-4.7171936L269.4676208,453.164093c-5.6440735,6.5180359-7.4270325,14.4864197,2.4854431,14.4864197l228.3601685,0.0004883c5.8899841-11.701355,10.4651794-24.85672,11.6867676-45.2857361c0-13.7922363-10.6037903-17.9876404-23.15625-11.6470337c0,0-7.3928833,37.4904175-61.6522522,37.4904175c-29.0583191,0.4783325-66.1954346,0-66.1954346,0l133.4746399-170.4596252c2.5618286-3.8302002,9.2343445-10.4053955,9.1641846-12.1524353c-0.1510315-3.7601318-4.9928894-7.3903198-13.0839844-7.3903198c-8.0910645,0-167.651947,0-167.651947,0C318.3710022,258.2062683,316.8320312,250.4093628,308.9346924,251.9280853z"/></svg>

<svg xmlns="http://www.w3.org/2000/svg" width="512" height="512"><path d="m0 290.523 72.881-3.903v34.1L0 316.148v-25.625zm330.985 50.227v-16.376c-19.506 26.16-65.07 13.65-60.895-20.397l12.748-45.394c5.401-21.134 14.145-22.113 46.386-22.113h1.761V62.915c0-10.808-8.761-19.57-19.57-19.57H152.592c-10.808 0-19.57 8.762-19.57 19.57v386.17c0 10.808 8.762 19.57 19.57 19.57h78.027L330.985 340.75zm48.13-264.413h-39.392v61.956h39.392V76.337zm0 160.133v-61.955h-39.392v61.955h39.392zM460.02 94.169l-72.88-3.904-.001 34.1 72.881-4.572V94.17zm0 98.177-72.881-3.903v34.1l72.881-4.572v-25.625zM0 414.326l72.881 4.571v-34.1L0 388.701v25.624zM81.573 236.47h43.946v-61.955H81.573v61.955zm0 98.178h43.946v-61.956H81.573v61.956zm0-196.355h43.946V76.337H81.574v61.956zm0 294.532h43.946V370.87H81.573v61.956zM0 217.97l72.881 4.573v-34.1l-72.88 3.903v25.624zm0-98.177 72.881 4.572v-34.1L.001 94.168v25.625zm308.935 132.135c-4.23.813-4.357 6.556-5.828 12.154l-12.263 43.206c-.752 6.312 6.23 12.73 18.016 9.007 8.597-2.716 8.117-20.771 28.247-32.02 9.165-5.122 41.23-4.718 68.59-4.718l-136.23 173.607c-5.643 6.518-7.426 14.487 2.486 14.487h228.36c5.89-11.701 10.465-24.857 11.687-45.286 0-13.792-10.604-17.987-23.156-11.647 0 0-7.393 37.49-61.653 37.49-29.058.479-66.195 0-66.195 0L494.471 277.75c2.562-3.83 9.234-10.405 9.164-12.152-.151-3.76-4.993-7.39-13.084-7.39H322.899c-4.528 0-6.067-7.798-13.964-6.279z"/></svg>
